**kern	**text	**kern	**text	**kern	**text	**kern	**text	**kern	**text	**cdata-harm
*staff5	*staff5	*staff4	*staff4	*staff3	*staff3	*staff2	*staff2	*staff1	*staff1	*
=1-	=1-	=1-	=1-	=1-	=1-	=1-	=1-	=1-	=1-	=1-
*clefF4	*	*clefGv2	*	*clefGv2	*	*clefGv2	*	*clefG2	*	*
*k[b-]	*	*k[b-]	*	*k[b-]	*	*k[b-]	*	*k[b-]	*	*
*M4/4	*	*M4/4	*	*M4/4	*	*M4/4	*	*M4/4	*	*
1r	.	1r	.	4G/	Go-	1r	.	1r	.	<CON_5v
.	.	.	.	8G/L	di-	.	.	.	.	.
.	.	.	.	8G/J	ti	.	.	.	.	.
.	.	.	.	4F#/	pur	.	.	.	.	.
.	.	.	.	4A/	no-	.	.	.	.	.
=2	=2	=2	=2	=2	=2	=2	=2	=2	=2	.
1r	.	4G/	Go-	4B-\	vo	4r	.	1r	.	.
.	.	8G/L	di-	4B-\	ter-	4d\	quel	.	.	.
.	.	8G/J	ti	.	.	.	.	.	.	.
.	.	4F#/	pur	4A/	ren	2a\	lau-	.	.	.
.	.	4A/	no-	4D/	quel	.	.	.	.	.
=3	=3	=3	=3	=3	=3	=3	=3	=3	=3	.
2r	.	4B-\	vo	2G/	lau-	2d\	ro	4r	.	.
.	.	4B-\	ter-	.	.	.	.	4g/	quel	.
4D\	Go-	2A/	ren-	2F#/	ro	4d\	Go-	2dd\	lau-	.
8D\L	di-	.	.	.	.	8d\L	di-	.	.	.
8D\J	ti	.	.	.	.	8d\J	ti	.	.	.
=4	=4	=4	=4	=4	=4	=4	=4	=4	=4	.
2C/	pur	4r	.	4G/	Go-	4e\	pur	2g/	ro	.
.	.	4G/	quel	8G/L	di-	4c\	no-	.	.	.
.	.	.	.	8G/J	ti	.	.	.	.	.
2D\	no-	2d\	lau-	4F#/	pur	4A/	vo	2r	.	.
.	.	.	.	4F#/	no-	4A/	ter-	.	.	.
=5	=5	=5	=5	=5	=5	=5	=5	=5	=5	.
4E-\	vo	2G/	ro	8G/L	vo	4c\	ren	4g/	Go-	.
.	.	.	.	8A/J	.	.	.	.	.	.
4E-\	ter-	.	.	8B-/L	.	4G/	quel	8g/L	di-	.
.	.	.	.	8G/J	.	.	.	8g/J	ti	.
2D\	ren	2r	.	4.A/	.	2d\	lau-	4f#/	pur	.
.	.	.	.	.	.	.	.	4a/	no-	.
.	.	.	.	8A/	ter-	.	.	.	.	.
=6	=6	=6	=6	=6	=6	=6	=6	=6	=6	.
4r	.	4G/	Go-	4d\	ren	8G/L	ro	4b-\	vo	.
.	.	.	.	.	.	8A/J	.	.	.	.
4GG/	quel	8G/L	di-	2D/	quel	8B-/L	.	4b-\	ter-	.
.	.	8G/J	ti	.	.	8G/J	.	.	.	.
2D\	lau-	4F/	pur	.	.	2A/	.	2a/	ren	.
.	.	4A/	no-	[4d\	lau-	.	.	.	.	.
=7	=7	=7	=7	=7	=7	=7	=7	=7	=7	.
2GG/	ro	4B-\	vo	4d\]	.	4d\	Go-	4r	.	.
.	.	4B-\	ter-	4G/	ro	8d\L	di-	4d/	quel	.
.	.	.	.	.	.	8d\J	ti	.	.	.
2r	.	2A/	ren	2r	.	4c#\	pur	2a/	lau-	.
.	.	.	.	.	.	4e\	no-	.	.	.
=8	=8	=8	=8	=8	=8	=8	=8	=8	=8	.
1r	.	4r	.	4r	.	4f\	vo	2d/	ro	.
.	.	4D/	quel	4d\	che-	4f\	ter-	.	.	<<CON_5v
.	.	2A/	lau-	4.c\	tras-	2e\	ren-	2r	.	.
.	.	.	.	8c\	por-	.	.	.	.	.
=9	=9	=9	=9	=9	=9	=9	=9	=9	=9	.
1r	.	2G/	ro	4.B-\	t&ograve;	4r	.	2dd\	che	.
.	.	.	.	.	.	4d\	quel	.	.	.
.	.	.	.	8B-\	po-	.	.	.	.	.
.	.	2r	.	2A/	coan-	2a\	lau-	4.cc\	tras-	.
.	.	.	.	.	.	.	.	8cc\	por-	.
=10	=10	=10	=10	=10	=10	=10	=10	=10	=10	.
4r	.	2r	.	2G/	ziin-	2d\	ro	4.b-\	t&ograve;	>
4G\	che	.	.	.	.	.	.	.	.	.
.	.	.	.	.	.	.	.	8b-\	po-	.
4.F\	tras-	4r	.	4.c\	sta-	2r	.	2a/	coan-	.
.	.	[4c\	che	.	.	.	.	.	.	.
8F\	por-	.	.	8c\	bil	.	.	.	.	.
=11	=11	=11	=11	=11	=11	=11	=11	=11	=11	.
4.E\	to	4c\]	.	8G/L	ven-	1r	.	2g/	zi	.
.	.	.	.	8A/J	.	.	.	.	.	.
.	.	[4B-\	tras-	8B-/L	.	.	.	.	.	.
8E\	po-	.	.	8c/J	.	.	.	.	.	.
2D\	coan-	8B-\L]	.	8d\L	.	.	.	4r	.	.
.	.	8B-\J	por-	8e\J	.	.	.	.	.	.
.	.	4A/	t&ograve;	8f\L	.	.	.	4d/	in-	.
.	.	.	.	8d\J	.	.	.	.	.	.
=12	=12	=12	=12	=12	=12	=12	=12	=12	=12	.
2C/	zi	2r	.	2e\	.	4r	.	4.g/	sta-	.
.	.	.	.	.	.	4g\	che	.	.	.
.	.	.	.	.	.	.	.	8g/	bil	.
2r	.	4r	.	2f\	to	4f\	tras-	8d/L	ven-	.
.	.	.	.	.	.	.	.	8e/J	.	.
.	.	4d\	che	.	.	4f\	por-	8f/L	.	.
.	.	.	.	.	.	.	.	8g/J	.	.
=13	=13	=13	=13	=13	=13	=13	=13	=13	=13	.
1r	.	4.c\	tras-	1r	.	4.e\	t&ograve;	8a/L	.	.
.	.	.	.	.	.	.	.	8b-/J	.	.
.	.	.	.	.	.	.	.	8cc/L	.	.
.	.	8c\	por-	.	.	8e\	po-	8a/J	.	.
.	.	4.B-\	t&ograve;	.	.	8d\L	coan-	8b-\L	.	.
.	.	.	.	.	.	8e\J	.	8cc\J	.	.
.	.	.	.	.	.	8f\L	.	[4dd\	.	.
.	.	8B-\	po-	.	.	8d\J	.	.	.	.
=14	=14	=14	=14	=14	=14	=14	=14	=14	=14	.
2r	.	2A/	coan-	2r	.	2e\	.	4dd\]	.	.
.	.	.	.	.	.	.	.	4cc#\	.	.
4r	.	2G/	ziin-	4r	.	[2g\	zi	2dd\	to	.
4GG/	in-	.	.	4d\	che	.	.	.	.	.
=15	=15	=15	=15	=15	=15	=15	=15	=15	=15	.
4.C/	sta-	4.e\	sta-	4.c\	tras-	2g\]	.	1r	.	.
8C/	bil	8e\	bil	8c\	por-	.	.	.	.	.
8GG/L	ven-	8d\L	ven-	4B-\	t&ograve;	2g\	che	.	.	.
8AA/J	.	8c\J	.	.	.	.	.	.	.	.
8BB-/L	.	8d\L	.	4B-\	po-	.	.	.	.	.
8C/J	.	8e\J	.	.	.	.	.	.	.	.
=16	=16	=16	=16	=16	=16	=16	=16	=16	=16	.
8D\L	.	4f\	.	2A/	coan-	4.f\	tras-	1r	.	.
8E\J	.	.	.	.	.	.	.	.	.	.
8F\L	.	4d\	to	.	.	.	.	.	.	.
8D\J	.	.	.	.	.	8f\	por-	.	.	.
8E\L	.	4r	.	2G/	zi-	4.e\	t&ograve;	.	.	.
8F\J	.	.	.	.	.	.	.	.	.	.
[4G\	.	4B-\	in-	.	.	.	.	.	.	.
.	.	.	.	.	.	8e\	po-	.	.	.
=17	=17	=17	=17	=17	=17	=17	=17	=17	=17	.
4G\]	.	4B-\	sta-	4r	.	2.d\	coan-	1r	.	.
4F#\	.	4A/	bil	4D/	in-	.	.	.	.	.
2G\	to	8B-\L	ven-	4.d\	sta-	.	.	.	.	.
.	.	8c\J	.	.	.	.	.	.	.	.
.	.	8d\L	.	.	.	4G/	ziin	.	.	.
.	.	8B-\J	.	8d\	bil	.	.	.	.	.
=18	=18	=18	=18	=18	=18	=18	=18	=18	=18	.
1r	.	8c\L	.	8A/L	ven-	4.c\	sta-	2r	.	.
.	.	8d\J	.	8B-/J	.	.	.	.	.	.
.	.	8e-\L	.	8c/L	.	.	.	.	.	.
.	.	8c\J	.	8A/J	.	8c\	bil	.	.	.
.	.	8d\L	.	8B-/L	.	8G/L	ven-	4r	.	.
.	.	8c\J	.	8A/J	.	8A/J	.	.	.	.
.	.	8B-\L	.	8G/L	.	8B-/L	.	4g/	in-	.
.	.	8A\J	.	8A/J	.	8c/J	.	.	.	.
=19	=19	=19	=19	=19	=19	=19	=19	=19	=19	.
1r	.	4G/	.	8B-\L	.	8d\L	.	4.dd\	sta-	.
.	.	.	.	8c\J	.	8e\J	.	.	.	.
.	.	4D/	to	8d\L	.	8f\L	.	.	.	.
.	.	.	.	8B-\J	.	8d\J	.	8dd\	bil	.
.	.	2r	.	4c\	.	8e\L	.	8g/L	ven-	.
.	.	.	.	.	.	8f\J	.	8a/J	.	.
.	.	.	.	4G/	to	[4g\	.	8b-/L	.	.
.	.	.	.	.	.	.	.	8g/J	.	.
=20	=20	=20	=20	=20	=20	=20	=20	=20	=20	.
1r	.	1r	.	1r	.	4g\]	.	2a/	.	.
.	.	.	.	.	.	4f#\	.	.	.	.
.	.	.	.	.	.	2g\	to	2g/	to	>
=21	=21	=21	=21	=21	=21	=21	=21	=21	=21	.
4r	.	4r	.	1r	.	4r	.	4r	.	.
4G\	ma	4B-\	ma	.	.	4d\	ma	4b-\	ma	<HOM_4v
4.F\	bre-	4.c\	bre-	.	.	4.f\	bre-	4.a/	bre-	.
8E\	ve	8c\	ve	.	.	8g\	ve	8g/	ve	.
=22	=22	=22	=22	=22	=22	=22	=22	=22	=22	.
4F\	siail	4c\	siail	1r	.	4a\	siail	4f/	siail	.
4C/	con-	4c\	con-	.	.	4g\	con-	4e/	con-	.
2G\	ten-	2Bn\	ten-	.	.	2g\	ten-	2d/	ten-	.
=23	=23	=23	=23	=23	=23	=23	=23	=23	=23	.
2C/	to	1c\	to	4r	.	4g\	to	4e/	to	>
.	.	.	.	4c\	poi-	4e\	poi-	4g/	poi-	<ANTIF_2v
2r	.	.	.	4c\	ch&eacute;	4e\	ch&eacute;	4g/	ch&eacute;	.
.	.	.	.	4A/	l'hai	4f\	l'hai	4a/	l'hai	.
=24	=24	=24	=24	=24	=24	=24	=24	=24	=24	.
2r	.	2r	.	2c\	pos-	2e\	pos-	2g/	pos-	.
4r	.	4r	.	2F/	to	[2f\	to	2a/	to-	.
4F\	poi-	4c\	poi-	.	.	.	.	.	.	.
=25	=25	=25	=25	=25	=25	=25	=25	=25	=25	.
4F\	ch&eacute;	4c\	ch&eacute;	1r	.	2f\]	.	4r	.	.
4D\	l'hai	4d\	l'hai	.	.	.	.	4b-\	in	.
2F\	pos-	2c\	pos-	.	.	4r	.	2a/	om-	.
.	.	.	.	.	.	4f\	poi-	.	.	.
=26	=26	=26	=26	=26	=26	=26	=26	=26	=26	.
2BB-/	to	2B-\	to	4r	.	4f\	ch&eacute;	2b-\	bra	>
.	.	.	.	4B-\	in	4d\	l'hai	.	.	<ANTIF_6(mot1)v+CON_5v(mot2)
2r	.	4r	.	2A/	om-	2f\	pos-	2r	.	.
.	.	4f\	poi-	.	.	.	.	.	.	.
=27	=27	=27	=27	=27	=27	=27	=27	=27	=27	.
4r	.	4f\	ch&eacute;	2B-\	bra	2d\	to	4r	.	.
4B-\	in	4d\	l'hai	.	.	.	.	4dd\	in	.
2A\	om-	2f\	pos-	2r	.	2r	.	2cc\	fo-	.
=28	=28	=28	=28	=28	=28	=28	=28	=28	=28	.
2B-\	bra	2d\	to	4r	.	4r	.	2b-\	glie	.
.	.	.	.	4d\	in	4f\	in	.	.	.
2r	.	2r	.	2c\	fo-	2e\	om-	4r	.	.
.	.	.	.	.	.	.	.	4g/	e'n	.
=29	=29	=29	=29	=29	=29	=29	=29	=29	=29	.
4r	.	4r	.	2B-\	glie	2f\	bra	8d/L	fron-	.
.	.	.	.	.	.	.	.	8e/J	.	.
4B-\	in	4d\	in	.	.	.	.	8f/L	.	.
.	.	.	.	.	.	.	.	8d/J	.	.
2A\	fo-	2c\	om-	2r	.	4r	.	8e/L	.	.
.	.	.	.	.	.	.	.	8d/J	.	.
.	.	.	.	.	.	4c\	in	8e/L	.	.
.	.	.	.	.	.	.	.	8f/J	.	.
=30	=30	=30	=30	=30	=30	=30	=30	=30	=30	.
2G\	glie	2d\	bra	4r	.	2B-\	fo-	2g/	.	.
.	.	.	.	4G/	e'n	.	.	.	.	.
2r	.	4r	.	8D/L	fron-	2A/	glie	2f/	de	.
.	.	.	.	8E/J	.	.	.	.	.	.
.	.	4d\	in	8F/L	.	.	.	.	.	.
.	.	.	.	8D/J	.	.	.	.	.	.
=31	=31	=31	=31	=31	=31	=31	=31	=31	=31	.
2r	.	2c\	fo-	8E/L	.	4r	.	1r	.	.
.	.	.	.	8D/J	.	.	.	.	.	.
.	.	.	.	8E/L	.	4c\	e'n	.	.	.
.	.	.	.	8F/J	.	.	.	.	.	.
4r	.	2B-\	glie	4G/	.	8G/L	fron-	.	.	.
.	.	.	.	.	.	8A/J	.	.	.	.
4G\	e'n	.	.	4F/	de	8B-/L	.	.	.	.
.	.	.	.	.	.	8G/J	.	.	.	.
=32	=32	=32	=32	=32	=32	=32	=32	=32	=32	.
8D\L	fron-	4r	.	1r	.	8A/L	.	1r	.	.
8E\J	.	.	.	.	.	8G/J	.	.	.	.
8F\L	.	4d\	e'n	.	.	8A/L	.	.	.	.
8D\J	.	.	.	.	.	8B-/J	.	.	.	.
8E\L	.	8G/L	fron-	.	.	4.c\	.	.	.	.
8D\J	.	8F/J	.	.	.	.	.	.	.	.
8E\L	.	8G/L	.	.	.	.	.	.	.	.
8F\J	.	8A/J	.	.	.	8d\	.	.	.	.
=33	=33	=33	=33	=33	=33	=33	=33	=33	=33	.
2G\	.	8B-\L	.	1r	.	4e\	.	2r	.	.
.	.	8c\J	.	.	.	.	.	.	.	.
.	.	4Bn\	.	.	.	4d\	de	.	.	.
2C/	de	2c\	de	.	.	4r	.	4r	.	>
.	.	.	.	.	.	8e\L	pi&ugrave;	8g/L	pi&ugrave;	<ANTIF_3v+CON_2v
.	.	.	.	.	.	8e\J	vo-	8g/J	vo-	.
=34	=34	=34	=34	=34	=34	=34	=34	=34	=34	.
1r	.	2r	.	2r	.	4f\	lu-	4a/	lu-	.
.	.	.	.	.	.	8e\L	bil	8g/L	bil	.
.	.	.	.	.	.	8d\J	che	8f/J	che	.
.	.	4r	.	4r	.	4c\	l'on-	4e/	l'on-	.
.	.	8c\L	pi&ugrave;	8A/L	pi&ugrave;	4c\	de	4e/	de	.
.	.	8c\J	vo-	8A/J	vo-	.	.	.	.	.
=35	=35	=35	=35	=35	=35	=35	=35	=35	=35	.
2r	.	4d\	lu-	4B-\	lu-	1r	.	2r	.	.
.	.	8c\L	bil	8A/L	bil	.	.	.	.	.
.	.	8B-\J	che	8G/J	che	.	.	.	.	.
4r	.	4A/	l'on-	4F/	l'on-	.	.	4r	.	.
8F\L	pi&ugrave;	4A/	de.	4F/	de	.	.	8a/L	pi&ugrave;	.
8F\J	vo-	.	.	.	.	.	.	8a/J	vo-	.
=36	=36	=36	=36	=36	=36	=36	=36	=36	=36	.
4G\	lu-	1r	.	4r	.	2r	.	4b-\	lu-	.
8F\L	bil	.	.	8c\L	pi&ugrave;	.	.	8a/L	bil	.
8E\J	che	.	.	8c\J	vo-	.	.	8g/J	che	.
4D\	l'on-	.	.	4d\	lu-	4r	.	4f/	l'on-	.
4E\	.	.	.	8c\L	bil	8g\L	pi&ugrave;	4e/	de	.
.	.	.	.	8B-\J	che	8g\J	vo-	.	.	.
=37	=37	=37	=37	=37	=37	=37	=37	=37	=37	.
4F\	.	1r	.	4A/	l'on-	4a\	lu-	2d/	l'on-	.
4G\	.	.	.	4Bn\	.	8g\L	bil	.	.	.
.	.	.	.	.	.	8f\J	che	.	.	.
[2A\	.	.	.	4c\	.	4e\	l'on-	2a/	de.	.
.	.	.	.	4d\	.	[4d\	.	.	.	.
=38	=38	=38	=38	=38	=38	=38	=38	=38	=38	.
2A\]	.	1r	.	2e\	.	4d\]	.	1r	.	.
.	.	.	.	.	.	4c#\	.	.	.	.
2D\	de.	.	.	2f#\	de.	2d\	de.	.	.	>
=39	=39	=39	=39	=39	=39	=39	=39	=39	=39	.
2r	.	2r	.	1r	.	2r	.	2r	.	.
2BB-/	E	2B-\	E	.	.	2f\	E	2dd\	E	<HOM_4v
=40	=40	=40	=40	=40	=40	=40	=40	=40	=40	.
2.F\	s'hor	2.A/	s'hor	1r	.	2.f\	s'hor	2.cc\	s'hor	.
4D\	n'hai	4B-\	n'hai	.	.	4f\	n'hai	4dd\	n'hai	.
=41	=41	=41	=41	=41	=41	=41	=41	=41	=41	.
4E-\	tu	4G/	tu	1r	.	4e-\	tu	4b-\	tu	.
4G\	ris-	4B-\	ris-	.	.	4d\	ris-	4b-\	ris-	.
2F\	tau-	2A/	tau-	.	.	2f\	tau-	2cc\	tau-	.
=42	=42	=42	=42	=42	=42	=42	=42	=42	=42	.
2BB-/	ro	2B-\	ro	2r	.	2f\	ro	2dd\	ro	>
2r	.	2F/	e	2f\	E	2a\	e	2cc\	e	<HOM_4v_rep
=43	=43	=43	=43	=43	=43	=43	=43	=43	=43	.
1r	.	2.c\	s'hor	2.e\	s'hor	2.g\	s'hor	2.cc\	s'hor	.
.	.	4A/	n'hai	4f\	n'hai	4a\	n'hai	4cc\	n'hai	.
=44	=44	=44	=44	=44	=44	=44	=44	=44	=44	.
1r	.	4B-\	tu	4d\	tu	4f\	tu	4b-\	tu	.
.	.	4d\	ris-	4f\	ris-	4f\	ris-	4a/	ris-	.
.	.	2c\	tau-	2e\	tau-	2g\	tau-	2cc\	tau-	.
=45	=45	=45	=45	=45	=45	=45	=45	=45	=45	.
1r	.	1F/	ro	1f\	ro	1a\	ro	2cc\	ro	>
.	.	.	.	.	.	.	.	[2a/	sap-	<CON_5v+ANTIF_6v
=46	=46	=46	=46	=46	=46	=46	=46	=46	=46	.
1D\	sap-	1A/	sap-	1d\	sap-	1f#\	sap-	2a/]	.	.
.	.	.	.	.	.	.	.	2d/	pi	.
=47	=47	=47	=47	=47	=47	=47	=47	=47	=47	.
2GG/	pi	2Bn\	pi	2d\	pi	4g\	pi	4r	.	.
.	.	.	.	.	.	4d\	che	4dd\	che	.
2r	.	2r	.	2r	.	8e\L	go-	8g/L	go-	.
.	.	.	.	.	.	8f\J	.	8a/J	.	.
.	.	.	.	.	.	8g\L	.	8b-/L	.	.
.	.	.	.	.	.	8e\J	.	8g/J	.	.
=48	=48	=48	=48	=48	=48	=48	=48	=48	=48	.
2r	.	2r	.	1d\	sap-	4f#\	.	4a/	.	.
.	.	.	.	.	.	4g\	doan-	4b-\	doan-	.
4r	.	2D/	che	.	.	2f#\	coi-	2a/	coi-	.
4D\	che	.	.	.	.	.	.	.	.	.
=49	=49	=49	=49	=49	=49	=49	=49	=49	=49	.
8E\L	go-	8G/L	go-	2G/	pi	2g\	o	2g/	o	.
8F\J	.	8A/J	.	.	.	.	.	.	.	.
8G\L	.	8B-/L	.	.	.	.	.	.	.	.
8E\J	.	8G/J	.	.	.	.	.	.	.	.
4F#\	.	4A/	.	2r	.	2r	.	[2dd\	sap-	.
4G\	doan-	4B-\	doan-	.	.	.	.	.	.	.
=50	=50	=50	=50	=50	=50	=50	=50	=50	=50	.
2F#\	coi	2A/	coi-	2r	.	2r	.	2dd\]	.	.
2G\	o	2Bn\	o	4r	.	4r	.	2g/	pi	.
.	.	.	.	4G/	che	4g\	che	.	.	.
=51	=51	=51	=51	=51	=51	=51	=51	=51	=51	.
2r	.	1r	.	8A/L	go-	8c\L	go-	1r	.	.
.	.	.	.	8B-/J	.	8d\J	.	.	.	.
.	.	.	.	8c/L	.	8e\L	.	.	.	.
.	.	.	.	8A/J	.	8c\J	.	.	.	.
[2G\	sap-	.	.	4Bn\	.	4d\	.	.	.	.
.	.	.	.	4c\	doan-	4e\	doan-	.	.	.
=52	=52	=52	=52	=52	=52	=52	=52	=52	=52	.
2G\]	.	2r	.	2Bn\	coi-	2d\	coi-	2r	.	.
2C/	pi	4r	.	2c\	o	2e\	o	4r	.	.
.	.	4c\	che	.	.	.	.	4cc\	che	.
=53	=53	=53	=53	=53	=53	=53	=53	=53	=53	.
1r	.	8d\L	go-	2r	.	1r	.	8f/L	go-	.
.	.	8e\J	.	.	.	.	.	8g/J	.	.
.	.	8f\L	.	.	.	.	.	8a/L	.	.
.	.	8d\J	.	.	.	.	.	8f/J	.	.
.	.	4e\	.	[2c\	sap-	.	.	4g/	.	.
.	.	4f\	doan-	.	.	.	.	4a/	doan-	.
=54	=54	=54	=54	=54	=54	=54	=54	=54	=54	.
1r	.	2e\	coi	2c\]	.	1r	.	2g/	coi-	.
.	.	4f\	o	2F/	pi	.	.	2a/	o	.
.	.	4c\	che	.	.	.	.	.	.	.
=55	=55	=55	=55	=55	=55	=55	=55	=55	=55	.
1r	.	8F/L	go-	2A/	che	4r	.	1r	.	.
.	.	8G/J	.	.	.	.	.	.	.	.
.	.	8A/L	.	.	.	4a\	che	.	.	.
.	.	8F/J	.	.	.	.	.	.	.	.
.	.	4G/	.	8Bn\L	go-	8d\L	go-	.	.	.
.	.	.	.	8c\J	.	8e\J	.	.	.	.
.	.	4D/	doan-	8d\L	.	8f\L	.	.	.	.
.	.	.	.	8Bn\J	.	8d\J	.	.	.	.
=56	=56	=56	=56	=56	=56	=56	=56	=56	=56	.
2r	.	2A/	coi-	4c#\	.	4e\	.	1r	.	.
.	.	.	.	4d\	doan-	4f\	doan-	.	.	.
4r	.	2A/	o	2c#\	coi-	4e\	coi-	.	.	.
4A\	che	.	.	.	.	4e\	o	.	.	><CON_5v
=57	=57	=57	=57	=57	=57	=57	=57	=57	=57	.
4.B-\	quel	4r	.	2d\	o	1r	.	1r	.	.
.	.	4d\	che	.	.	.	.	.	.	.
8B-\	ch'&egrave;	.	.	.	.	.	.	.	.	.
4A\	fat-	4.f\	quel	2r	.	.	.	.	.	.
4A\	to	.	.	.	.	.	.	.	.	.
.	.	8f\	ch'&egrave;	.	.	.	.	.	.	.
=58	=58	=58	=58	=58	=58	=58	=58	=58	=58	.
2.G\	tuo	4e\	fat-	1r	.	2r	.	4r	.	.
.	.	4e\	to	.	.	.	.	4g/	che	.
.	.	[2d\	tuo	.	.	4r	.	4.b-\	quel	.
4G\	non	.	.	.	.	4d\	che	.	.	.
.	.	.	.	.	.	.	.	8b-\	ch'&egrave;	.
=59	=59	=59	=59	=59	=59	=59	=59	=59	=59	.
4F\	sia	2d\]	.	4r	.	4.f\	quel	4a/	fat-	.
4D\	pi&ugrave;	.	.	4A/	che	.	.	4a/	to	.
.	.	.	.	.	.	8f\	ch'&egrave;	.	.	.
4.E\	mi-	2r	.	4.c\	quel	4e\	fat-	2g/	tuo	.
.	.	.	.	.	.	4e\	to	.	.	.
8F\	.	.	.	8c\	ch'&egrave;	.	.	.	.	.
=60	=60	=60	=60	=60	=60	=60	=60	=60	=60	.
2G\	.	4r	.	4B-\	fat-	4d\	tuo	2r	.	.
.	.	4d\	che	4B-\	to	4g\	non	.	.	.
2D\	o	4.f\	quel	4A/	tuo	4f\	sia	4r	.	.
.	.	.	.	4d\	non	4d\	pi&ugrave;	4a/	che	.
.	.	8f\	ch'&egrave;	.	.	.	.	.	.	.
=61	=61	=61	=61	=61	=61	=61	=61	=61	=61	.
1r	.	4e\	fat-	4c\	sia	4.e\	mi-	4.cc\	quel	.
.	.	4e\	to	4A/	pi&ugrave;	.	.	.	.	.
.	.	.	.	.	.	8f\	.	8cc\	ch'&egrave;	.
.	.	2d\	tuo	4.B-\	mi-	2g\	.	4b-\	fat-	.
.	.	.	.	.	.	.	.	4b-\	to	.
.	.	.	.	8c\	.	.	.	.	.	.
=62	=62	=62	=62	=62	=62	=62	=62	=62	=62	.
2D\	che	1r	.	2d\	.	2f#\	o	4a/	tuo	.
.	.	.	.	.	.	.	.	4dd\	non	.
4.F\	quel	.	.	2A/	o	2r	.	4cc\	sia	.
.	.	.	.	.	.	.	.	4a/	pi&ugrave;	.
8F\	ch'&egrave;	.	.	.	.	.	.	.	.	.
=63	=63	=63	=63	=63	=63	=63	=63	=63	=63	.
4E-\	fat-	2r	.	4r	.	2g\	non	4.b-\	mi-	.
4E-\	to	.	.	4G/	che	.	.	.	.	.
.	.	.	.	.	.	.	.	8cc\	.	.
2D\	tuo	4r	.	4.B-\	quel	4f\	sia	4dd\	.	.
.	.	4d\	non	.	.	4d\	pi&ugrave;	4dd\	o	.
.	.	.	.	8B-\	ch'&egrave;	.	.	.	.	.
=64	=64	=64	=64	=64	=64	=64	=64	=64	=64	.
1r	.	4c\	sia	4A/	fat-	4.e\	mi-	2r	.	.
.	.	4A/	pi&ugrave;	4A/	to	.	.	.	.	.
.	.	.	.	.	.	8f\	.	.	.	.
.	.	4.B-\	mi-	4G/	tuo	4g\	.	2d/	che	.
.	.	.	.	4G/	non	4d\	o	.	.	.
.	.	8c\	.	.	.	.	.	.	.	.
=65	=65	=65	=65	=65	=65	=65	=65	=65	=65	.
1r	.	2d\	.	4F/	sia	4r	.	4.f/	quel	.
.	.	.	.	4D/	pi&ugrave;	4A/	che	.	.	.
.	.	.	.	.	.	.	.	8f/	ch'&egrave;	.
.	.	2G/	o	4.E/	mi-	4.c\	quel	4e/	fat-	.
.	.	.	.	.	.	.	.	4e/	to	.
.	.	.	.	8F/	.	8c\	ch'&egrave;	.	.	.
=66	=66	=66	=66	=66	=66	=66	=66	=66	=66	.
2r	.	4r	.	2G/	.	4B-\	fat-	2d/	tuo	.
.	.	4d\	che	.	.	4B-\	to	.	.	.
4r	.	4.f\	quel	2D/	o	2A/	tuo	4r	.	.
4D\	non	.	.	.	.	.	.	4a/	che	.
.	.	8f\	ch'&egrave;-	.	.	.	.	.	.	.
=67	=67	=67	=67	=67	=67	=67	=67	=67	=67	.
4C/	sia	4e\	fat-	2A/	non	1r	.	4.cc\	quel	.
4AA/	pi&ugrave;	4e\	to	.	.	.	.	.	.	.
.	.	.	.	.	.	.	.	8cc\	ch'&egrave;	.
4.BB-/	mi-	4d\	tuo	4F/	sia	.	.	4b-\	fat-	.
.	.	4G/	non	4D/	pi&ugrave;	.	.	4b-\	to	.
8C/	.	.	.	.	.	.	.	.	.	.
=68	=68	=68	=68	=68	=68	=68	=68	=68	=68	.
[1D\	.	4F/	sia	[1d\	mi-	4r	.	4a/	tuo	.
.	.	4D/	pi&ugrave;	.	.	2a\	non	4a/	non	.
.	.	4.d\	mi-	.	.	.	.	4f/	sia	.
.	.	.	.	.	.	[4f\	sia	4d/	pi&ugrave;	.
.	.	8c\	.	.	.	.	.	.	.	.
=69	=69	=69	=69	=69	=69	=69	=69	=69	=69	.
1D\_	.	2.B-\	.	1d\_	.	4f\]	.	[1dd\	mi-	.
.	.	.	.	.	.	4d\	pi&ugrave;	.	.	.
.	.	.	.	.	.	[2g\	mi-	.	.	.
.	.	8A/L	.	.	.	.	.	.	.	.
.	.	8G/J	.	.	.	.	.	.	.	.
=70	=70	=70	=70	=70	=70	=70	=70	=70	=70	.
1D\]	.	1A/	.	1d\]	.	4g\]	.	1dd\]	.	.
.	.	.	.	.	.	8f#\L	.	.	.	.
.	.	.	.	.	.	8e\J	.	.	.	.
.	.	.	.	.	.	2f#\	.	.	.	.
=71	=71	=71	=71	=71	=71	=71	=71	=71	=71	.
1GG/	o.	1G/	o.	1d\	o.	1g\	o.	1bn\	o.	>
==	==	==	==	==	==	==	==	==	==	==
*-	*-	*-	*-	*-	*-	*-	*-	*-	*-	*-